T: Captain Dunne's March
M: 4/4
L: 1/8
K: Gmaj
dB |
G2 G>F GB dB | c2 A>^G A3 c | B/c/d ef gd BG | d2 d>e dc BA |
G2 G>F GB dB | c2 A>^G A3 c | B/c/d BG A/B/c AF | G2 G>F G2 :|
|: de/f/ |
g2 gf gd BG | c2 A>^G A2 fg | a2 ab ag fe | de fe dc BA |
G2 GF G/A/B dB | c2 A>^G A3 c | B/c/d BG A/B/c AF | G2 GF G2 :|
